X:1
T:Title
%%score 1 2
L:1/8
Q:1/4=83
M:4/4
K:C
V:1 treble nm="Grand Piano, Soprano"
V:2 bass nm="Choir Pad, Sweeter Day by Day"
V:1
 B[Ec]- [Ec]/[Ec]/[GB]- [GB]/[FA]/[EG]/[CE]/- [CE]2 | %1
w: By~Carl~Harold~Lowden * * * * * * * * *|
 [CE][B,D]- [B,D]/[CE]/[EG]- [EG]/[DF]/ [CE]3 | %2
w: |
 [EG][FA]- [FA]/[FA]/[GB]- [GB]/[GB]/[Gc]/[Gc]/- [Gc]2 | %3
w: |
 [Ec][^Fc]- [Fc]/[FA]/[FB]- [FB]/[Fc]/ [=Fd]3 | %4
w: |
 [FG][Ec]- [Ec]/[Ec]/[GB]- [GB]/[FA]/[EG]/[CE]/- [CE]2 | %5
w: |
 [EG][FA]- [FA]/[FA]/[FB]- [FB]/[Ec]/ [DB]3 | [FG][Ec]- [Ec]/[Ec]/[FB]- [FB]/[Gc]/[Fd] [FA]2- | %7
w: ||
 [FA] [FB]2 [FG]- [FG] [Ec]3 | G[Fd]- [Fd]/[Fd]/[E^c]- [Ec]/[Fd]/ [FB]2 [FA]- | %9
w: ||
 [FA]/[FB]/[Ed]- [Ed]/[Ec]/[GB]- [GB]/[FA]/ [EG]3 | %10
w: |
 [EG][FA]- [FA]/[FA]/[GB]- [GB]/[GB]/[Gc]- [Gc]/[GB]/[^Fc]- | %11
w: |
 [Fc]/[^FA]/ [Gd]3- [Gd]2- [Gd]/ z/ G- | G/G/[Ge]- [Ge]/[Ge]/[Ge]- [Ge]/[Fd]/ [Ec]2 [Gc]- | %13
w: ||
 [Gc]/[GB]/[Fd]- [Fd]/[Ac]/[GB]- [GB]/[FA]/ [EG]2 [EG]- | %14
w: |
 [EG]/[EG]/[FA]- [FA]/[FA]/[FB]- [FB]/[FB]/[Ec] [Ec]2- | [Ec] [Ge]2 [Fd]- [Fd] [Ec]3- | [Ec]4 z4 |] %17
w: |||
V:2
 G,[C,G,]- [C,G,]/[C,G,]/[C,C]- [C,C]/[C,C]/[C,C]/[C,G,]/- [C,G,]2 | %1
 [C,G,][G,,G,]- [G,,G,]/[G,,G,]/[G,,G,]- [G,,G,]/[G,,G,]/ [C,G,]3 | %2
 [C,C][F,C]- [F,C]/[F,C]/[F,D]- [F,D]/[F,D]/[E,C]/[E,C]/- [E,C]2 | %3
 [A,C][D,D]- [D,D]/[D,C]/[D,B,]- [D,B,]/[D,A,]/ [G,B,]3 | %4
 [G,B,][C,G,]- [C,G,]/[C,G,]/[C,C]- [C,C]/[C,C]/[C,C]/[C,G,]/- [C,G,]2 | %5
 [C,C][F,C]- [F,C]/[F,C]/[D,G,]- [D,G,]/[C,G,]/ G,3 | %6
 G,[C,G,]- [C,G,]/[C,G,]/[D,G,]- [D,G,]/[E,C]/[F,A,] [F,D]2- | [F,D] [G,D]2 [G,B,]- [G,B,] [C,C]3 | %8
 G,[G,B,]- [G,B,]/[G,B,]/[G,_B,]- [G,B,]/[G,=B,]/ [G,D]2 [G,D]- | %9
 [G,D]/[G,D]/[C,C]- [C,C]/[C,G,]/[C,A,]- [C,A,]/[C,B,]/ [C,C]3 | %10
 [C,C][F,C]- [F,C]/[F,C]/[F,D]- [F,D]/[F,D]/[E,C]- [E,C]/[E,C]/[D,C]- | %11
 [D,C]/[D,C]/ [G,B,]3- [G,B,]2- [G,B,]/ z/ [G,B,]- | %12
 [G,B,]/[G,B,]/[C,C]- [C,C]/[C,C]/[C,C]- [C,C]/[C,G,]/ [C,G,]2 [E,C]- | %13
 [E,C]/[E,C]/[F,A,]- [F,A,]/[F,C]/[F,C]- [F,C]/[F,C]/ [C,C]2 [C,C]- | %14
 [C,C]/[C,C]/[F,C]- [F,C]/[F,C]/[D,G,]- [D,G,]/[D,G,]/[C,G,] [C,G,]2- | %15
 [C,G,] G,2 [G,B,]- [G,B,] [C,C]3- | [C,C]4 z4 |] %17

